; Cerchio blu, in alto a sinistra
COLOR 255

REPEAT 360 [
  FD 1
  RT 1
]

PENUP
RT 90
FD 120
LT 90
PENDOWN

COLOR 0
REPEAT 360 [
  FD 1
  RT 1
]

PENUP
RT 90
FD 120
LT 90
PENDOWN

COLOR 16711680
REPEAT 360 [
  FD 1
  RT 1
]

PENUP
RT 90
BK 182
LT 90
BK 58
PENDOWN

COLOR 15520566
REPEAT 360 [
  FD 1
  RT 1
]

PENUP
RT 90
FD 120
LT 90
PENDOWN

COLOR 65280
REPEAT 360 [
  FD 1
  RT 1
]