; quadrato.logo
; Disegna un quadrato con linee tratteggiate

REPEAT 4 [
 ; Disegna una segmento lungo 100 tratteggiato
 
 REPEAT 10 [
  FD 5
  PENUP
  FD 5
  PENDOWN
 ]

 ; Ruota a destra di 90 gradi
 RT 90
]

