; Draw a spiral shape

MAKE :COLOR
MAKE :STEP

LET :COLOR 10000000
LET :STEP 10

REPEAT 10 [
  COLOR :COLOR
  FD :STEP
  RT 90
  LET :STEP PRODUCT :STEP 3
  LET :STEP QUOTIENT :STEP 2
  
  LET :COLOR SUM :COLOR 50000
]