MAKE :COLORE
MAKE :PASSO

LET :COLORE 10000000
LET :PASSO 10

REPEAT 10 [
  COLOR :COLORE
  FD :PASSO
  RT 90
  LET :PASSO PRODUCT :PASSO 3
  LET :PASSO QUOTIENT :PASSO 2
  
  LET :COLORE SUM :COLORE 50000
]